dist/images/followUsToEclipse.svg

<svg width="48" height="48" viewBox="0 0 48 48" fill="none" xmlns="http://www.w3.org/2000/svg">
<circle cx="24" cy="24" r="24" fill="#F37021"/>
<path d="M29.9019 19.5418L29.9019 19.5418L29.907 19.546C30.3412 19.9051 31.1182 20.5488 31.7391 21.2639C32.0499 21.6218 32.3038 21.9778 32.4575 22.3068C32.6124 22.6386 32.6405 22.8879 32.5901 23.0699C32.5505 23.2046 32.4508 23.3198 32.2476 23.4353C32.0718 23.5351 31.876 23.6052 31.6527 23.6851C31.5989 23.7043 31.5436 23.7241 31.4865 23.745C30.3 24.1752 29.08 24.5156 27.8404 24.7664L27.8401 24.7664C27.3037 24.8752 26.5936 25.0159 26.0722 24.9433C25.8173 24.9078 25.7023 24.8329 25.6539 24.7713C25.6164 24.7234 25.5431 24.5864 25.6253 24.2188C25.6839 23.9616 25.8228 23.7016 26.021 23.4271C26.1827 23.2031 26.3645 22.9944 26.5537 22.7774C26.5997 22.7245 26.6462 22.6712 26.693 22.617L26.693 22.617L26.6952 22.6143C26.7675 22.5294 26.8396 22.4444 26.9116 22.3595C27.7671 21.3507 28.6121 20.3544 29.5891 19.5654L29.6798 19.5791L29.8073 19.5269C29.8301 19.5175 29.8469 19.5168 29.8568 19.5181C29.8616 19.5187 29.8669 19.52 29.873 19.5227C29.8791 19.5254 29.8889 19.5308 29.9019 19.5418Z" stroke="#F6F3EC"/>
<path d="M27.635 30.938L27.635 30.938C28.1015 31.7835 28.5858 32.6378 29.2391 33.1792C29.2403 33.1786 29.2414 33.178 29.2426 33.1774L29.3484 33.0715H29.5555C29.5595 33.0715 29.5633 33.0716 29.567 33.0716C30.1028 32.9769 30.7499 32.5901 31.3139 32.0289C31.8884 31.4572 32.2946 30.786 32.4017 30.2363C32.4496 29.9836 32.3849 29.7956 32.2327 29.6187C32.0624 29.4208 31.7785 29.237 31.4 29.0691C31.0276 28.904 30.6062 28.7723 30.1965 28.6557C30.0866 28.6245 29.9749 28.5936 29.8646 28.5632C29.5834 28.4856 29.3119 28.4107 29.1061 28.3384C29.1058 28.3383 29.1055 28.3382 29.1052 28.3381L29.2709 27.8664L27.635 30.938ZM27.635 30.938L27.6335 30.9353M27.635 30.938L27.6335 30.9353M27.6335 30.9353C27.5462 30.7793 27.4555 30.6239 27.3638 30.4666M27.6335 30.9353L27.3638 30.4666M27.3638 30.4666C27.1994 30.1847 27.0315 29.8969 26.8732 29.589M27.3638 30.4666L26.8732 29.589M26.8732 29.589C26.6304 29.1169 26.4545 28.6769 26.4055 28.2949L26.8732 29.589Z" stroke="#F6F3EC"/>
<path d="M21.3424 35.6836C21.3617 35.6884 21.381 35.698 21.4003 35.7077C22.0032 35.8957 23.1268 36.1996 23.7104 35.8138C24.134 35.5328 24.1624 35.0233 24.188 34.5629C24.191 34.5097 24.1939 34.457 24.1974 34.4055C24.2891 33.1806 24.3277 31.946 24.3421 30.7162L21.3424 35.6836ZM21.3424 35.6836C20.0741 35.4618 18.526 34.8783 18.3765 33.7063C18.362 33.5713 18.4151 33.4508 18.4971 33.3591M21.3424 35.6836L18.4971 33.3591M18.4971 33.3591C18.5357 33.2867 18.5742 33.2193 18.6177 33.1566C18.7921 32.9151 18.9914 32.6985 19.1925 32.4798C19.2083 32.4627 19.2241 32.4455 19.2398 32.4284M18.4971 33.3591L19.2398 32.4284M19.2398 32.4284C19.6063 31.8834 20.0018 31.3578 20.4213 30.8513L19.2398 32.4284ZM22.8787 29.0757L22.8794 29.0754C23.1892 28.947 23.3446 28.9716 23.4122 28.9975C23.4788 29.023 23.5594 29.0876 23.6379 29.2542C23.808 29.6149 23.847 30.1915 23.8421 30.711C23.8278 31.9345 23.7894 33.1575 23.6988 34.3682L23.6988 34.3682L23.6986 34.3716C23.694 34.4386 23.6905 34.5011 23.6871 34.5602C23.676 34.7552 23.6671 34.9122 23.6315 35.0649C23.5909 35.2393 23.5291 35.3339 23.4343 35.3969C23.2994 35.4859 23.0288 35.528 22.6219 35.4794C22.2547 35.4356 21.8747 35.3309 21.5842 35.2412C21.5545 35.2278 21.5117 35.2106 21.4643 35.1987L21.4466 35.1942L21.4286 35.1911C20.8251 35.0855 20.1825 34.8977 19.6867 34.6164C19.2033 34.3421 18.9384 34.0279 18.8785 33.6827L18.9099 33.6476L18.9383 33.5944C18.9722 33.5308 18.9996 33.4838 19.0261 33.4451C19.1818 33.2302 19.3608 33.0356 19.5652 32.8133C19.5794 32.7978 19.5937 32.7823 19.6081 32.7666L19.6337 32.7387L19.6547 32.7074C20.0114 32.1771 20.3968 31.6647 20.8064 31.1703C20.9362 31.0137 21.0597 30.8563 21.1837 30.6982C21.3824 30.4449 21.5827 30.1896 21.8132 29.9321C22.1768 29.5261 22.53 29.2196 22.8787 29.0757Z" stroke="#F6F3EC"/>
<path d="M23.3024 23.0092L23.2864 22.9992L23.2593 22.968L23.2272 22.9417C21.0627 21.1622 18.9477 18.3953 17.8619 15.8541L17.8617 15.8536C17.6885 15.4494 17.6791 15.1156 17.7563 14.8319C17.8358 14.54 18.0187 14.2591 18.2964 13.9915C18.8614 13.4471 19.7385 13.0348 20.5482 12.7688L20.5484 12.7687C21.656 12.4042 22.2414 12.4518 22.5696 12.6672C22.8988 12.8832 23.1638 13.3949 23.2752 14.5033C23.4616 16.4292 23.5476 18.3696 23.5332 20.3053L23.5332 20.3061C23.532 20.5152 23.5447 20.751 23.557 20.9813C23.5579 20.9983 23.5588 21.0152 23.5598 21.032C23.5733 21.2852 23.5859 21.5384 23.5844 21.7861C23.5815 22.3024 23.5154 22.6931 23.3583 22.9352L23.3076 23.0132L23.3024 23.0092Z" stroke="#F6F3EC"/>
<path d="M22.1808 26.2693L22.1804 26.2678C22.1776 26.2549 22.1746 26.2468 22.1727 26.2425L22.101 26.202L22.0421 26.1308C21.369 25.3167 20.3838 24.7049 19.3912 24.1335C19.2447 24.0497 19.0983 23.961 18.949 23.8705C18.6762 23.7051 18.3939 23.534 18.0843 23.3772C17.6093 23.1368 17.2031 23.0054 16.8927 23.0266C16.315 23.0692 15.8917 23.5884 15.6311 24.539C15.382 25.4477 15.3574 26.517 15.4074 27.1466C15.4074 27.1467 15.4074 27.1468 15.4074 27.1469L22.1808 26.2693ZM22.1808 26.2693C22.2354 26.5114 22.1787 26.6187 22.0958 26.7084M22.1808 26.2693L22.0958 26.7084M22.0958 26.7084C21.9737 26.8404 21.7606 26.9591 21.4253 27.1121M22.0958 26.7084L21.4253 27.1121M21.4253 27.1121C20.2869 27.6248 19.087 28.0363 17.8751 28.3785C17.8748 28.3786 17.8744 28.3787 17.874 28.3788L18.0098 28.86L21.4253 27.1121Z" stroke="#F6F3EC"/>
</svg>

<svg width="48" height="48" fill="none" xmlns="http://www.w3.org/2000/svg"><circle cx="24" cy="24" r="24" fill="#F37021"/><path d="m29.902 19.542.005.004c.434.36 1.211 1.003 1.832 1.718.31.358.565.714.719 1.043.154.332.183.58.132.763-.04.135-.14.25-.342.365-.176.1-.372.17-.595.25l-.166.06c-1.187.43-2.407.77-3.647 1.021-.536.11-1.246.25-1.768.177-.255-.035-.37-.11-.418-.172-.038-.048-.11-.185-.029-.552.059-.257.198-.517.396-.792.162-.224.343-.433.533-.65l.139-.16.002-.003.217-.255c.855-1.008 1.7-2.005 2.677-2.794l.09.014.128-.052c.023-.01.04-.01.05-.009.005 0 .01.002.016.005a.122.122 0 0 1 .029.019Zm-2.267 11.396c.466.846.95 1.7 1.604 2.241l.004-.002.105-.105h.219c.536-.095 1.183-.482 1.747-1.043.574-.572.98-1.243 1.088-1.793a.681.681 0 0 0-.17-.617c-.17-.198-.453-.382-.832-.55a9.318 9.318 0 0 0-1.203-.413l-.332-.093a11.704 11.704 0 0 1-.759-.225l.165-.472-1.636 3.072Zm0 0-.002-.003m.002.003-.002-.003m0 0a20.716 20.716 0 0 0-.27-.468m.27.468-.27-.468m0 0a19.78 19.78 0 0 1-.49-.878m.49.878-.49-.878m0 0c-.243-.472-.419-.912-.468-1.294l.468 1.294Zm-5.531 6.095a.29.29 0 0 1 .058.024c.603.188 1.727.492 2.31.106.424-.281.452-.79.478-1.251l.01-.157c.091-1.225.13-2.46.144-3.69l-3 4.968Zm0 0c-1.268-.222-2.816-.806-2.965-1.978a.447.447 0 0 1 .12-.347m2.845 2.325-2.845-2.325m0 0a2.02 2.02 0 0 1 .12-.202c.175-.242.374-.458.575-.677l.048-.052m-.743.931.743-.93m0 0c.366-.546.762-1.071 1.181-1.578l-1.181 1.577Zm3.639-3.353c.31-.129.466-.104.533-.079.067.026.147.09.226.257.17.36.209.938.204 1.457a58.198 58.198 0 0 1-.143 3.657v.004l-.012.188c-.011.195-.02.352-.056.505-.04.174-.102.269-.197.332-.135.089-.405.131-.812.082a6.104 6.104 0 0 1-1.038-.238.73.73 0 0 0-.12-.042l-.017-.005-.018-.003c-.604-.105-1.246-.293-1.742-.575-.484-.274-.749-.588-.809-.933l.032-.035.028-.054c.034-.063.062-.11.088-.149.156-.215.335-.41.54-.632l.042-.046.026-.028.02-.032c.357-.53.743-1.042 1.152-1.537.13-.156.254-.314.378-.472.198-.253.399-.508.63-.766.363-.406.716-.712 1.065-.856Zm.423-6.066-.016-.01-.027-.032-.032-.026c-2.164-1.78-4.28-4.547-5.365-7.088-.173-.405-.183-.738-.106-1.022.08-.292.263-.573.54-.84.565-.545 1.442-.957 2.252-1.223 1.108-.365 1.693-.317 2.022-.102.329.216.594.728.705 1.836.187 1.926.273 3.867.258 5.802v.001c-.001.21.012.445.024.675l.003.051c.013.253.026.506.024.754-.003.516-.069.907-.226 1.15l-.05.077-.006-.004Zm-1.122 3.26v-.002a.134.134 0 0 0-.007-.026l-.072-.04-.059-.071c-.673-.814-1.658-1.426-2.65-1.997a20.39 20.39 0 0 1-.443-.264 12.85 12.85 0 0 0-.865-.493c-.475-.24-.88-.372-1.191-.35-.578.042-1.001.561-1.262 1.512-.249.909-.274 1.978-.224 2.608l6.774-.878Zm0 0c.055.241-.001.349-.084.438m.085-.439-.085.44m0 0c-.122.131-.335.25-.67.403m.67-.404-.67.404m0 0a25.595 25.595 0 0 1-3.552 1.267l.136.481 3.415-1.748Z" stroke="#F6F3EC"/></svg>
